X: 23703
T: Lisheen, The
R: polka
M: 2/4
K: Gmajor
|:dg B/c/B/A/|GA Bd|f2 ef|ed Bc|
dg B/c/B/A/|GA Bd|f2 ef|g2 g2:|
|:a2 f/g/f/e/|de fe|fa ef/e/|dB BA|
dg B/c/B/A/|GA Bd|f2 ef|g2 g2:|

